X:1
T:Title
%%score { ( 1 4 ) | ( 2 3 ) }
L:1/8
Q:1/4=86
M:4/4
K:Eb
V:1 treble nm="Grand Piano"
V:4 treble 
V:2 bass 
V:3 bass 
V:1
 [B,GB]3 c Bedc | [CAc]2 [B,GB]4 [GB][Ac] | [B,GB]2 [FA]2 [DF]2 [Ac]2 |[M:3/4] [B,GB]6 | %4
w: Emma~Ackley~Miller * * * * *||||
[M:1/4] [G,_DE][G,DE] |[M:4/4] [CA]3 A [DB]2 [CA]2 | [CA]2 [B,G]4 [B,G]_G | %7
w: |||
 [DF]2 [B,D]2 [B,E]2 E2 | D6 z2 | B3 c BGFE | G2 G2 z4 | [DG]3 [DF] [_D=E][=DF][Dc][DB] | %12
w: |||||
[M:3/4] B6 |[M:1/4] BB |[M:4/4] c3 c d2 cd |[M:9/8] z2 _D- D e2- edc |[M:4/4] B2 BA G2 z A, | %17
w: |||||
 E6 z2 |] %18
w: |
V:2
 z2 z[K:treble] [CA] [B,G][EG][DB][CA] | E,,2 E,4 B,C | z2 A,2 F,2 C2 |[M:3/4] E,6 |[M:1/4] E,E, | %5
[M:4/4] z2 A,2 z4 | z4 z2 E,2 | F,2 F,,2 z2 =A,2 | F,4 z4 | %9
 [E,G,E]3 [E,A,E] [E,G,E][E,B,E][E,A,B,][E,G,B,] | [E,B,E]2 [E,B,E]2 z4 | %11
 [B,,B,]3 [B,,A,] [B,,G,][B,,A,][B,,F,][B,,A,] |[M:3/4] [E,G,E]2 [F,A,]2 [G,B,]2 | %13
[M:1/4] [E,G,E][E,G,E] |[M:4/4][K:treble] [A,E]3 [F,=A,F] [B,F]2[K:bass] [B,,B,]2 | %15
[M:9/8] .B,3 z[K:treble] [A,CA]2- [A,CA][=A,C_G][A,EG] | %16
[M:4/4] [B,EG]2 [G,B,E][A,CF][K:bass] [B,E]2 .[B,,B,]2 | [E,G,B,]6 z2 |] %18
V:3
 [E,,E,]8[K:treble] | x8 | B,,8 |[M:3/4] x6 |[M:1/4] x2 |[M:4/4] A,,E, z C A,2 A,2 | E,,2 E,4 z C | %7
 z4 [F,,F,]4 | [B,,B,]6 z2 | x8 | x8 | x8 |[M:3/4] x6 |[M:1/4] x2 | %14
[M:4/4][K:treble] x6[K:bass] x2 |[M:9/8] .E,6[K:treble] z3 |[M:4/4] x4[K:bass] x4 | x8 |] %18
V:4
 x8 | x8 | x8 |[M:3/4] x6 |[M:1/4] x2 |[M:4/4] x8 | x8 | x8 | z4 A,2 z2 | x8 | x8 | x8 | %12
[M:3/4] z2 D2 E2 |[M:1/4] x2 |[M:4/4] z4 z2 A2 |[M:9/8] .[Ge]6 z3 |[M:4/4] z4 z2 [DF]2 | x8 |] %18

